!!!!SEGMENT: pl-sa--l-1643--073_anonim--benedictum-sanctum-patriarcham-nostrum.krn
!!!cenid: 16xx:1431
!!!COM: Anonim
!!!COM-rismid: pe30004985
!!!CDT:
!!!CNT:
!!!OTL: Benedictum sanctum Patriarcham nostrum
!!!PDT:
!!!AGN: Sacred
!!!SMS-siglum: PL-SA
!!!SMS-shelfmark: L 1643
!!!SMS-shelfwork: 073 W
!!!SMS-variant:
!!!SMS-altvar:
!!!NIFC-rismid: 1001063333
!!!URL-scan: http://repozytorium.nifc.pl/skany/pl-sa-nut--l1643
!!!ONB-nifc: UWAGA: 8 ksiąg. Primi chori: 1mus Cantus (x), C 2dus (118-120), C 3tius (x), Bassus (x); Secondi chori: Primus Cantus (x), C 2dus (x), Altus (x), Bassus (121-123). UWAGA: Nie dodawać pustych linii, chyba że w rękopisie pojawiają się dodatkowe oznaczenia dotyczące pełnej obsady (a 4, a 8 itp.)
!!!AIN: 2 empty
!!!key:
**kern	**text	**kern	**text
*part2	*part2	*part1	*part1
*staff2	*staff2	*staff1	*staff1
*Iempty	*	*Iempty	*
*I"Baſsus 2di Chori.	*	*I"Cantus 2dus Primi Chori.	*
*I'Coro 2 B	*	*I'Coro 1 S 2	*
*clefC4	*	*clefC1	*
*k[]	*	*k[]	*
*C:	*	*C:	*
*M2/2	*	*M2/2	*
*met(c|)	*	*met(c|)	*
=1-	=1-	=1-	=1-
!LO:TX:t=Pro ſolemnia fe\nſtiuitate s. Benedicti	!	!	!
4G/	Be-	4b\	Be-
4G/	-ne-	4b\	-ne-
4G/	-dic-	4b\	-dic-
4G/	-tum	4b\	-tum
=2-	=2-	=2-	=2-
2G/	San-	4.g\	san-
.	.	8a\	.
2G/	-ctu(m)	2b\	-ctum
=3-	=3-	=3-	=3-
2r	.	2r	.
4D/	Pat-	4a\	pat-
4D/	-ri-	4a\	-ri-
=4-	=4-	=4-	=4-
4F/	-ar-	4a\	-ar-
4G/	-cham	4g\	-cham
2D/	noſ-	2f#X/	noſ-
=5-	=5-	=5-	=5-
2D/	-trum	2d/	-trum
2r	.	4fny/	con-
.	.	8e/	-de-
.	.	8d/	-co-
=6-	=6-	=6-	=6-
0r	.	4e/	-re-
.	.	4e/	-mus
.	.	4g/	con-
.	.	8f/	-de-
.	.	8e/	-co-
=7-	=7-	=7-	=7-
.	.	4d/	-re-
*	*	*custos:g	*
.	.	4d/	-mus
!	!	!LO:LB:g=original	!
.	.	2.g/	can-
=8-	=8-	=8-	=8-
4D/	con-	.	.
8D/	-de-	4f#X/	-ti-
8D/	-co-	.	.
4G/	-re-	2g,/	-cis
4G/	-mus	.	.
=9-	=9-	=9-	=9-
4C/	con-	4e/	con-
8C/	-de-	8e/	-de-
8C/	-co-	8e/	-co-
4F/	-re-	4a\	-re-
4F/	-mus	4a,<\	-mus
=10-	=10-	=10-	=10-
*custos:D	*	*	*
4D/	con-	4a\	con-
!LO:PB:g=original	!	!	!
8D/	-de-	8a\	-de-
8D/	-co-	8a\	-co-
4E/	-re-	4g/	-re-
4E/	-mus	4g/	-mus
=11-	=11-	=11-	=11-
2.D/	can-	1r	.
4D/	-ti-	.	.
=12-	=12-	=12-	=12-
2G/	-cis	4dd\	con-
.	.	8dd\	-de-
.	.	8dd\	-co-
4G/	con-	4.b\	-re-
8G/	-de-	.	.
8A/	-co-	8a\	.
=13-	=13-	=13-	=13-
4B\	-re-	4g/	-mus
4c\	-mus	2g/	can-
4.d\	Can-	.	.
.	.	4f#X/	-ti-
8d\	-ti-	.	.
=14-	=14-	=14-	=14-
1G	-cis	2g/	-cis
*	*	*custos:e	*
.	.	2g/	qui
=15-	=15-	=15-	=15-
!	!	!LO:LB:g=original	!
0r	.	4.e/	mi-
.	.	8d/	-ra
.	.	4c/	ſan-
.	.	4d/	-cti-
=16-	=16-	=16-	=16-
.	.	2.e/	-ta-
.	.	4fny/	.
=17-	=17-	=17-	=17-
1r	.	4g/	-te
.	.	4g/	ful-
.	.	4f#X/	-sit
.	.	2g/	in
=18-	=18-	=18-	=18-
2r	.	.	.
.	.	4f#X/	ter-
2G/	et	2g/	-ris,
=19-	=19-	=19-	=19-
4.c\	i-	1r	.
8B\	-de-	.	.
4A/	-o	.	.
4F/	cum	.	.
=20-	=20-	=20-	=20-
2G/	chris-	2b\	et
2C/	-to	4.g/	i-
.	.	8g/	-de-
=21-	=21-	=21-	=21-
*custos:G	*	*	*
2r	.	4a\	-o
.	.	4cc\	cum
!LO:LB:g=original	!	!	!
2G/	et	2b\	chriſ-
=22-	=22-	=22-	=22-
4.C/	i-	2cc\	-to
8C/	-de-	.	.
4F/	-o	2r	.
4E/	cum	.	.
=23-	=23-	=23-	=23-
2D/	chris-	1r	.
2C/	-to	.	.
=24-	=24-	=24-	=24-
00r	.	4g\	iam
.	.	8g\	si-
*	*	*custos:g	*
.	.	8g\	-ne
!	!	!LO:LB:g=original	!
.	.	4g\	fi-
.	.	4b\	-ne
=25-	=25-	=25-	=25-
.	.	4a\	iam
.	.	8a\	si-
.	.	8a\	-ne
.	.	4a\	fi-
.	.	4a\	-ne
=26-	=26-	=26-	=26-
.	.	2g/	gau-
.	.	4e/	-det
.	.	4g/	in
=27-	=27-	=27-	=27-
.	.	2f#X/	cae-
.	.	2g/	-lis,
=28-	=28-	=28-	=28-
4G/	iam	00r	.
8G/	ſi-	.	.
8F#X/	-ne	.	.
4G/	fi-	.	.
4D/	-ne	.	.
=29-	=29-	=29-	=29-
4d\	iam	.	.
8d\	ſi-	.	.
8c#X\	-ne	.	.
4d\	fi-	.	.
4A\	-ne	.	.
=30-	=30-	=30-	=30-
2B\	gau-	.	.
4A/	-dent	.	.
4G/	in	.	.
=31-	=31-	=31-	=31-
2d\	cae-	.	.
2G/	-lis	.	.
=32-	=32-	=32-	=32-
0r	.	2r	.
.	.	4dd\	gau-
.	.	8cc\	-det
.	.	8b\	in
=33-	=33-	=33-	=33-
.	.	4a\	cae-
.	.	4a\	-lis
.	.	4cc\	gau-
.	.	8b\	-det
.	.	8a\	in
=34-	=34-	=34-	=34-
1r	.	4g/	cae-
.	.	4g/	-lis
*	*	*custos:a	*
.	.	4b\	gau-
!	!	!LO:LB:g=original	!
.	.	8a\	-det
.	.	8g\	in
=35-	=35-	=35-	=35-
*custos:G	*	*	*
2r	.	2f#X/	cae-
!LO:LB:g=original	!	!	!
4G/	gau-	4g/	-lis
8Fny/	-den	4g/	in
8E/	in	.	.
=36-	=36-	=36-	=36-
1D	cae-	1a	cae-
=37-	=37-	=37-	=37-
!LO:N:vis=0	!	!LO:N:vis=0	!
1G;	-lis	1g;	-lis;
=38||	=38||	=38||	=38||
!LO:TX:b:t=Vir Domini;	!	!	!
00r	.	1r	.
=39-	=39-	=39-	=39-
.	.	2cc\	Vir
.	.	4.a\	do-
.	.	8a\	-mi-
=40-	=40-	=40-	=40-
.	.	1a	-ni
=41-	=41-	=41-	=41-
.	.	2r	.
.	.	2a\	vir
=42-	=42-	=42-	=42-
00r	.	4.b\	do-
.	.	8b\	-mi-
.	.	2b,<\	-ni
=43-	=43-	=43-	=43-
.	.	2g/	vir
.	.	4.cc\	do-
.	.	8cc\	-mi-
=44-	=44-	=44-	=44-
.	.	2cc\	-ni
.	.	4cc\	mag-
*	*	*custos:a	*
.	.	4a\	-nus
=45-	=45-	=45-	=45-
!	!	!LO:LB:g=original	!
.	.	4.a\	be-
.	.	8b\	-ne-
.	.	1cc\	-dic-
=46-	=46-	=46-	=46-
00r	.	.	.
.	.	2b\	-tus
=47-	=47-	=47-	=47-
.	.	4.g/	om-
.	.	8g/	-ni-
.	.	4g/	-um
.	.	4g/	iuſ-
=48-	=48-	=48-	=48-
.	.	4cc\	-to-
.	.	4cc\	-rum
.	.	4.b\	spi-
.	.	8b\	-ri-
=49-	=49-	=49-	=49-
.	.	2b\	-tu
.	.	4a\	ple-
.	.	4dd\	-nus
=50-	=50-	=50-	=50-
00r	.	2cc#X\	fu-
.	.	2dd\	-it
=51-	=51-	=51-	=51-
.	.	4.d/	om-
.	.	8d/	-ni-
.	.	4fny/	-um
.	.	4g/	ſan-
=52-	=52-	=52-	=52-
.	.	4a\	-cto-
*	*	*custos:g	*
!	!	!LO:TX:b:t=spi:problem=text custos	!
.	.	4f#X/	-rum
!	!	!LO:PB:g=original	!
.	.	4.g/	spi-
.	.	8g/	-ri-
=53-	=53-	=53-	=53-
.	.	2d/	-tu
.	.	4e/	ple-
.	.	2g/	-nus
=54-	=54-	=54-	=54-
00r	.	.	.
.	.	4f#X/	fu-
.	.	2g/	-it
=55-	=55-	=55-	=55-
.	.	4.b\	om-
.	.	8b\	-ni-
.	.	4b\	-um
.	.	4ccny\	san-
=56-	=56-	=56-	=56-
.	.	4dd\	-cto-
.	.	4b\	-rum
.	.	4.cc\	spi-
.	.	8cc\	-ri-
=57-	=57-	=57-	=57-
.	.	2a\	-tu
.	.	4g/	ple-
.	.	4g/	-nus
=58-	=58-	=58-	=58-
2r	.	2f#X/	fu-
2G/	et	2g/	-it,
=59-	=59-	=59-	=59-
4.c\	i-	1r	.
8B\	-de-	.	.
4A/	-o	.	.
4F/	cum	.	.
=60-	=60-	=60-	=60-
2G/	chris-	2b\	et
2C/	-to	4.g\	i-
*	*	*custos:a	*
.	.	8g\	-de-
=61-	=61-	=61-	=61-
!	!	!LO:LB:g=original	!
2r	.	4a\	-o
.	.	4cc\	cum
2G/	et	2b\	chriſ-
=62-	=62-	=62-	=62-
4.C/	i-	2cc\	-to,
8C/	-de-	.	.
4F/	-o	2r	.
4E/	cum	.	.
=63-	=63-	=63-	=63-
2D/	chris-	1r	.
*custos:G	*	*	*
2C/	-to	.	.
=64-	=64-	=64-	=64-
!LO:LB:g=original	!	!	!
00r	.	4g/	iam
.	.	8g/	si-
.	.	8g/	-ne
.	.	4g/	fi-
.	.	4b,<\	-ne
=65-	=65-	=65-	=65-
.	.	4a\	iam
.	.	8a\	si-
.	.	8a\	-ne
.	.	4a\	fi-
.	.	4a\	-ne
=66-	=66-	=66-	=66-
.	.	2g/	gau-
.	.	4e/	-det
.	.	4g/	in
=67-	=67-	=67-	=67-
.	.	2f#X/	cae-
.	.	2g/	-lis,
=68-	=68-	=68-	=68-
4G/	iam	00r	.
8G/	ſi-	.	.
!LO:TX:b:t=P:problem=# below	!	!	!
8F#X/	-ne	.	.
4G/	fi-	.	.
4D/	-ne	.	.
=69-	=69-	=69-	=69-
4d\	iam	.	.
8d\	ſi-	.	.
8c\	-ne	.	.
4d\	fi-	.	.
!LO:TX:a:t=P:problem=# above	!	!	!
4A#X\	-ne	.	.
=70-	=70-	=70-	=70-
2B\	gau-	.	.
4Any/	-det	.	.
4G/	in	.	.
=71-	=71-	=71-	=71-
2d\	cae-	.	.
2G/	-lis	.	.
=72-	=72-	=72-	=72-
0r	.	2r	.
.	.	4dd\	gau-
.	.	8cc\	-det
.	.	8b\	in
=73-	=73-	=73-	=73-
.	.	4a\	cae-
*	*	*custos:cc	*
.	.	4a\	-lis
!	!	!LO:LB:g=original	!
.	.	4cc\	gau-
.	.	8b\	-det
.	.	8a\	in
=74-	=74-	=74-	=74-
1r	.	4g/	cae-
.	.	4g/	-lis
.	.	4b\	gau-
.	.	8a\	-det
.	.	8g\	in,
=75-	=75-	=75-	=75-
2r	.	2f#X/	cae-
4G/	gau-	4g/	-lis
8Fny/	-dent	4g/	in
8E/	in	.	.
=76-	=76-	=76-	=76-
1D	cae-	1a	cae-
=77-	=77-	=77-	=77-
!LO:N:vis=0	!	!LO:N:vis=0	!
1G	-lis	1g;;	-lis,
=78|"	=78|"	=78||	=78||
*custos:g	*	*	*
1G	Vir	00r	.
=79-	=79-	=79-	=79-
!LO:LB:g=original	!	!	!
4g\	uir	.	.
8g\	ue-	.	.
8f\	-ne-	.	.
4e\	-ra-	.	.
8e\	-bi-	.	.
8d\	-lis	.	.
=80-	=80-	=80-	=80-
4c\	ui-	.	.
4c\	-rae	.	.
4c\	uir	.	.
8c\	ue-	.	.
8B\	-ne-	.	.
=81-	=81-	=81-	=81-
4A/	-ra-	.	.
8A/	-bi-	.	.
8G/	-lis	.	.
4d\	ui-	.	.
4e\	-re	.	.
=82-	=82-	=82-	=82-
4c\	Be-	00r	.
4B\	-[ne]-	.	.
2d\	-dic-	.	.
=83-	=83-	=83-	=83-
2d\	-tus	.	.
4.g\	gra-	.	.
8g\	-ti-	.	.
=84-	=84-	=84-	=84-
4d\	-a	.	.
4d\	et	.	.
4.f\	no-	.	.
8f\	-mi-	.	.
=85-	=85-	=85-	=85-
*custos:e	*	*	*
2c\	-ne	.	.
!LO:LB:g=original	!	!	!
4.e\	gra-	.	.
8e\	-ti-	.	.
=86-	=86-	=86-	=86-
4B\	-a	00r	.
4B\	et	.	.
4.d\	no-	.	.
8d\	-mi-	.	.
=87-	=87-	=87-	=87-
2A/	-ne	.	.
4.c\	gra-	.	.
8c\	-ti-	.	.
=88-	=88-	=88-	=88-
4G/	-a	.	.
4G/	et	.	.
4.d\	no-	.	.
8d\	-mi-	.	.
=89-	=89-	=89-	=89-
2G/	-ne	.	.
2G/	et	.	.
=90-	=90-	=90-	=90-
4.c\	i-	1r	.
8B\	-de-	.	.
4A/	-o	.	.
4F/	cum	.	.
=91-	=91-	=91-	=91-
2G/	chris-	2b\	Et
2C/	-to	4.g/	i-
.	.	8g/	-de-
=92-	=92-	=92-	=92-
2r	.	4a\	-o
.	.	4cc\	cum
2G/	et	2b\	chriſ-
=93-	=93-	=93-	=93-
4.C/	i-	2cc\	-to,
*custos:F	*	*	*
8C/	-de-	.	.
!LO:PB:g=original	!	!	!
4F/	-o	2r	.
4E/	cum	.	.
=94-	=94-	=94-	=94-
2D/	chris-	1r	.
2C/	-to	.	.
=95-	=95-	=95-	=95-
00r	.	4g\	iam
.	.	8g\	si-
*	*	*custos:g	*
.	.	8g\	-ne
!	!	!LO:LB:g=original	!
.	.	4g/	fi-
.	.	4b\	-ne
=96-	=96-	=96-	=96-
.	.	4a\	iam
.	.	8a\	si-
.	.	8a\	-ne
.	.	4a\	fi-
.	.	4a\	-ne
=97-	=97-	=97-	=97-
.	.	2g/	gau-
.	.	4e/	-det
.	.	4g/	in
=98-	=98-	=98-	=98-
.	.	2f#X/	cae-
.	.	2g/	-lis,
=99-	=99-	=99-	=99-
4G/	iam	00r	.
8G/	ſi-	.	.
8F#X/	-ne	.	.
4G/	fi-	.	.
4D/	-ne	.	.
=100-	=100-	=100-	=100-
4d\	iam	.	.
8d\	ſi-	.	.
8c#X\	-ne	.	.
4d\	fi-	.	.
4A\	-ne	.	.
=101-	=101-	=101-	=101-
2B\	gau-	.	.
4A/	-dent	.	.
4G/	in	.	.
=102-	=102-	=102-	=102-
2d\	cae-	.	.
2G/	-lis	.	.
=103-	=103-	=103-	=103-
0r	.	2r	.
.	.	4dd\	gau-
.	.	8cc\	-det
.	.	8b\	in
=104-	=104-	=104-	=104-
.	.	4a\	cae-
.	.	4,<a\	-lis
.	.	4cc\	gau-
.	.	8b\	-det
.	.	8a\	in
=105-	=105-	=105-	=105-
1r	.	4g/	cae-
.	.	4g/	-lis
.	.	4b\	gau-
.	.	8a\	-det
*	*	*custos:f	*
.	.	8g\	in
=106-	=106-	=106-	=106-
!	!	!LO:LB:g=original	!
2r	.	2fny/	cae-
4G/	gau-	4g/	-lis
8Fny/	-dent	4g/	in
*custos:D	*	*	*
8E/	in	.	.
=107-	=107-	=107-	=107-
!LO:LB:g=original	!	!	!
1D	cae-	1a	cae-
=108-	=108-	=108-	=108-
!LO:N:vis=0	!	!LO:N:vis=0	!
1G;	-lis	1g;;	-lis;
=109|"|	=109|"|	=109||	=109||
4.G/	Glo-	4g/	Glo-
.	.	4g/	-ri-
8G/	-ri-	.	.
4D/	-o-	4a\	-o-
4G/	-ſus	4g\	-sus
=110-	=110-	=110-	=110-
4.C/	Do-	4.g\	do-
8C/	-mi-	8g\	-mi-
4C/	-ni	4g/	-ni
4C/	con-	4e/	con-
=111-	=111-	=111-	=111-
2F/	-feſ-	4.a\	-fes-
.	.	8g\	.
2F/	-ſor	2f/	-sor
=112-	=112-	=112-	=112-
4D/	Be-	4.f/	Be-
4D/	-ne-	.	.
.	.	8g/	-ne-
2A/	-dic-	2a\	-dic-
=113-	=113-	=113-	=113-
!	!	!LO:TX:t=P:problem=możliwe przesunięcia po tym fragmencie, po wielu próbach nie znalazłem lepszego rozwiązania	!
1D	-tus	1a	-tus
=114-	=114-	=114-	=114-
0r	.	2f/	vi-
.	.	4e/	-tam
*	*	*custos:d	*
.	.	4f/	an-
=115-	=115-	=115-	=115-
!	!	!LO:LB:g=original	!
.	.	4.d/	-ge-
.	.	8d/	-li-
.	.	4e,</	-cam
.	.	4e/	ge-
=116-	=116-	=116-	=116-
1r	.	4d/	-rens
.	.	4d/	in
.	.	2c#X/	ter-
=117-	=117-	=117-	=117-
2r	.	4d,/	-ris
.	.	8f/	spe-
.	.	8f/	-cu-
4.F/	spe-	4f/	-lum
.	.	4f/	bo-
8F/	-cu-	.	.
=118-	=118-	=118-	=118-
4F/	-lum	4a\	-no-
4F/	bo-	4f,</	-rum
4F/	-no-	4.f/	o-
*custos:F	*	*	*
4F/	-rum	.	.
.	.	8c/	-pe-
=119-	=119-	=119-	=119-
!LO:LB:g=original	!	!LO:TX:t=P:problem=dźwięk niewidoczny	!
4.F/	o-	4c,/	-rum
.	.	8a\	spe-
8F/	-pe-	8a\	-cu-
2C/	-rum	4cc,<\	-lum
.	.	4cc\	bo-
=120-	=120-	=120-	=120-
4.c\	spe-	4cc\	-no-
.	.	4g/	-ru(m)
8c\	-cu-	.	.
4c\	-lum	4.g\	o-
4c\	bo-	.	.
*	*	*custos:g	*
!	!	!LO:TX:b:t=rum:problem=text custos	!
.	.	8g\	-pe-
=121-	=121-	=121-	=121-
!	!	!LO:PB:g=original	!
4c\	-no-	4g,/	-rum
*	*	*	*ij
4c\	-rum	8e/	spe-
.	.	8e/	-cu-
4.c\	o-	4e/	-lum
.	.	4e/	bo-
8c\	-pe-	.	.
=122-	=122-	=122-	=122-
2G/	-rum	4g/	-no-
.	.	4g/	-rum
4.G/	spe-	4.g/	o-
8G/	-cu-	8g/	-pe-
=123-	=123-	=123-	=123-
4G/	-lum	2d/	-rum
*	*	*	*Xij
4G/	bo-	.	.
4G/	-no-	4r	.
4G/	-rum	8dd\	ſpe-
.	.	8dd\	-cu-
=124-	=124-	=124-	=124-
4.G/	o-	4dd\	-lum
.	.	4dd\	bo-
8G/	-pe-	.	.
2D/	-rum	4a\	-no-
.	.	4a\	-rum
=125-	=125-	=125-	=125-
4.F/	spe-	4.cc\	o-
8F/	-cu-	8cc\	-pe-
*custos:F	*	*	*
4F/	-lum	2cc\	-rum
!LO:LB:g=original	!	!	!
4F/	bo-	.	.
=126-	=126-	=126-	=126-
4F/	-no-	2cc\	fac-
4F/	-rum	.	.
4.F/	o-	2a\	-tus
8F/	-pe-	.	.
=127-	=127-	=127-	=127-
*	*	*custos:cc	*
1C	-rum	2b\	eſt
!	!	!LO:LB:g=original	!
.	.	2cc\	mun-
=128-	=128-	=128-	=128-
0r	.	1a	-do,
=129-	=129-	=129-	=129-
.	.	1r	.
=130-	=130-	=130-	=130-
2r	.	2b\	et
2G/	et	4.g/	i-
.	.	8g/	-de-
=131-	=131-	=131-	=131-
4.c\	i-	4a\	-o
.	.	4cc\	cum
8B\	-de-	.	.
4A/	-o	2b\	chriſ-
4F/	cum	.	.
=132-	=132-	=132-	=132-
2G/	chris-	2cc\	-to,
2C/	-to	2r	.
=133-	=133-	=133-	=133-
2r	.	1r	.
2G/	et	.	.
=134-	=134-	=134-	=134-
!LO:TX:t=P:LO:N:vis=2.:problem	!	!	!
4.C/	i-	4g/	iam
.	.	8g/	si-
8C/	-de-	8g/	-ne
4F/	-o	4g/	fi-
4E/	cum	4b\	-ne
=135-	=135-	=135-	=135-
2D/	chris-	4a\	iam
.	.	8a\	si-
.	.	8a\	-ne
2C/	-to	4a\	fi-
.	.	4a\	-ne
=136-	=136-	=136-	=136-
00r	.	2g/	gau-
.	.	4e/	-det
*	*	*custos:f	*
.	.	4g/	in
=137-	=137-	=137-	=137-
!	!	!LO:TX:a:t=P:problem=# above	!
!	!	!LO:LB:g=original	!
.	.	2f#X/	cae-
.	.	2g/	-lis,
=138-	=138-	=138-	=138-
.	.	00r	.
=139-	=139-	=139-	=139-
.	.	.	.
=140-	=140-	=140-	=140-
4G/	iam	.	.
8G/	ſi-	.	.
!LO:TX:t=P:LO:N:vis=4:problem	!	!	!
8F#X/	-ne	.	.
4G/	fi-	.	.
4D/	-ne	.	.
=141-	=141-	=141-	=141-
4d\	iam	.	.
8d\	ſi-	.	.
!LO:TX:t=P:LO:N:vis=4:problem	!	!	!
8c#X\	-ne	.	.
4d\	fi-	.	.
4A\	-ne	.	.
=142-	=142-	=142-	=142-
2B\	gau-	2r	.
4A/	-dent	4dd\	gau-
4G/	in	8cc\	-det
.	.	8b\	in
=143-	=143-	=143-	=143-
2d\	cae-	4a\	cae-
.	.	4a\	-lis
2G/	-lis	4cc\	gau-
.	.	8b\	-det
.	.	8a\	in
=144-	=144-	=144-	=144-
0r	.	4g/	cae-
.	.	4g,/	-lis
*	*	*	*ij
.	.	4b\	gau-
.	.	8a\	-det
.	.	8g\	in
=145-	=145-	=145-	=145-
.	.	2f#X/	cae-
.	.	4g,/	-lis
*	*	*	*Xij
.	.	4g/	in
=146-	=146-	=146-	=146-
1r	.	1a	cae-
=147-	=147-	=147-	=147-
2r	.	1g	-lis
4G/	gau-	.	.
8Fny/	-dent	.	.
8E/	in	.	.
=148-	=148-	=148-	=148-
*	*	*	*ij
1D	cae-	2g/	gau-
.	.	4g/	-det
*	*	*custos:g	*
.	.	4e/	in
=149-	=149-	=149-	=149-
!	!	!LO:LB:g=original	!
4G/	-lis	2g/	cae-
8G/L	gau-	.	.
8A/J	.	.	.
4B\	-dent	2g,/	-lis
*	*	*	*Xij
4cny\	in	.	.
=150-	=150-	=150-	=150-
2.G/	cae-	4.b\	gau-
.	.	8a\	.
.	.	4g/	-det
4C/	-lis	4g/	in
=151-	=151-	=151-	=151-
4.G/	gau-	2g/	cae-
*custos:e	*	*	*
8F/	.	.	.
!LO:LB:g=original	!	!	!
4E/	-dent	2g/	-lis,
4C/	in	.	.
=152-	=152-	=152-	=152-
2.G/	cae-	2r	.
*	*	*	*ij
.	.	4g/	gau-
4C/	-lis	8g/	-det
.	.	8f/	in
=153-	=153-	=153-	=153-
1C	ga[u]-	4e/	cae-
.	.	4g/	-lis,
*	*	*	*Xij
.	.	2r	.
=154-	=154-	=154-	=154-
2C/	-dent	4cc\	gau-
.	.	8cc\	-det
.	.	8dd\	in
2C/	in	4ee\	cae-
.	.	4cc\	-lis
=155-	=155-	=155-	=155-
!LO:TX:a:t=4	!	!	!
!LO:N:vis=0	!	!	!
0.C	cae-	2r	.
.	.	2g/	gau-
=156-	=156-	=156-	=156-
.	.	2g/	-det
.	.	2g/	in
=157-	=157-	=157-	=157-
.	.	2.g/	cae-
.	.	4a\	.
=158-	=158-	=158-	=158-
!LO:N:vis=00	!	!LO:N:vis=0	!
1G	-lis	1b;;	-lis;
==159	==159	==159	==159
*-	*-	*-	*-
!!!system-decoration: [(s1)][(s2)]
!!!ENC: Filip Voros
!!!END: 2021-10-19
!!!ENC: Krzysztof Stępień
!!!END: 2021-10-22
!!!RDF**kern: > = above
!!!RDF**kern: < = below
